app/dist/common/images/shn-airport.svg

<svg height="18" viewBox="0 0 18 18" width="18" xmlns="http://www.w3.org/2000/svg"><path d="m0 0h18v18h-18z" fill="#f0f3fa"/><path d="m9.8 9-2.09 4.17c-.74 1.46-2.71.87-2.71-.82v-2.35h1.43v2.57l1.76-3.57-1.76-3.57v2.57h-1.43v-2.35c0-1.69 1.97-2.28 2.72-.82z" fill="#a21c50"/><path d="m11.57 10h1.43v2.35c0 1.68-1.97 2.28-2.71.82l-1.03-2.05.8-1.6 1.51 3.04zm-1.27-5.17-1.04 2.04.8 1.61 1.51-3.04v2.56h1.43v-2.35c0-1.69-1.97-2.28-2.71-.82z" fill="#96969a"/></svg>

<!-- by TradingView --><svg width="18" height="18" viewBox="0 0 18 18" xmlns="http://www.w3.org/2000/svg"><path fill="#F0F3FA" d="M0 0h18v18H0z"/><path d="m9.8 9-2.09 4.17c-.74 1.46-2.71.87-2.71-.82V10h1.43v2.57L8.19 9 6.43 5.43V8H5V5.65c0-1.69 1.97-2.28 2.72-.82L9.8 9Z" fill="#A21C50"/><path d="M11.57 10H13v2.35c0 1.68-1.97 2.28-2.71.82l-1.03-2.05.8-1.6 1.51 3.04V10ZM10.3 4.83 9.26 6.87l.8 1.61 1.51-3.04V8H13V5.65c0-1.69-1.97-2.28-2.71-.82Z" fill="#96969A"/></svg>
